assets/images/paycheck.svg

<svg xmlns="http://www.w3.org/2000/svg" xml:space="preserve" viewBox="0 0 20 20"><path d="M4.2 7.8c-.6.1-.8.3-.8.7s.2.6.8.8zm1.6 3.6c0-.4-.2-.6-.9-.8v1.6c.6-.1.9-.3.9-.8"/><path d="M1.5 4C.7 4 0 4.7 0 5.5v9c0 .8.7 1.5 1.5 1.5h17c.8 0 1.5-.7 1.5-1.5v-9c0-.8-.7-1.5-1.5-1.5zm3.6 5.5c1.3.3 1.9.8 1.9 1.8 0 1.2-.9 1.9-2.1 2v.7h-.7v-.8c-1.4-.1-2.2-.8-2.2-2.1h1.2c0 .6.3.9.9 1v-1.8H4c-1.3-.3-1.9-.8-1.9-1.8s.7-1.8 2-1.9V6h.7v.8c1.3.1 1.9.9 2 2H5.7c0-.5-.3-.8-.7-.9v1.6zM10 7c-.6 0-1 .4-1 1s.4 1 1 1h7c.6 0 1-.4 1-1s-.4-1-1-1zm-1 5c0-.6.4-1 1-1h5c.6 0 1 .4 1 1s-.4 1-1 1h-5c-.6 0-1-.4-1-1" style="fill-rule:evenodd;clip-rule:evenodd"/></svg>

<svg xmlns="http://www.w3.org/2000/svg" xmlns:xlink="http://www.w3.org/1999/xlink" id="Layer_1" x="0" y="0" version="1.1" viewBox="0 0 20 20" style="enable-background:new 0 0 20 20" xml:space="preserve"><style type="text/css">.st0{fill-rule:evenodd;clip-rule:evenodd}</style><path d="M4.2,7.8C3.6,7.9,3.4,8.1,3.4,8.5c0,0.4,0.2,0.6,0.8,0.8V7.8z"/><path d="M5.8,11.4c0-0.4-0.2-0.6-0.9-0.8v1.6C5.5,12.1,5.8,11.9,5.8,11.4z"/><path d="M1.5,4C0.7,4,0,4.7,0,5.5v9C0,15.3,0.7,16,1.5,16h17c0.8,0,1.5-0.7,1.5-1.5v-9C20,4.7,19.3,4,18.5,4H1.5z M5.1,9.5C6.4,9.8,7,10.3,7,11.3c0,1.2-0.9,1.9-2.1,2V14H4.2v-0.8C2.8,13.1,2,12.4,2,11.1h1.2c0,0.6,0.3,0.9,0.9,1v-1.8l-0.1,0	c-1.3-0.3-1.9-0.8-1.9-1.8c0-1,0.7-1.8,2-1.9V6h0.7v0.8c1.3,0.1,1.9,0.9,2,2H5.7c0-0.5-0.3-0.8-0.7-0.9v1.6L5.1,9.5z M10,7	C9.4,7,9,7.4,9,8s0.4,1,1,1h7c0.6,0,1-0.4,1-1s-0.4-1-1-1H10z M9,12c0-0.6,0.4-1,1-1h5c0.6,0,1,0.4,1,1s-0.4,1-1,1h-5	C9.4,13,9,12.6,9,12z" class="st0"/></svg>
